; generated by PrusaSlicer 2.2.0+win64 on 2020-03-27 at 05:46:12 UTC

; 

; external perimeters extrusion width = 0.45mm
; perimeters extrusion width = 0.45mm
; infill extrusion width = 0.45mm
; solid infill extrusion width = 0.45mm
; top infill extrusion width = 0.45mm
; first layer extrusion width = 0.42mm

M201 X500 Y500 Z100 E5000 ; sets maximum accelerations, mm/sec^2
M203 X500 Y500 Z10 E60 ; sets maximum feedrates, mm/sec
M204 P500 R1000 T500 ; sets acceleration (P, T) and retract acceleration (R), mm/sec^2
M205 X8.00 Y8.00 Z0.40 E5.00 ; sets the jerk limits, mm/sec
M205 S0 T0 ; sets the minimum extruding and travel feed rate, mm/sec
M107
G90 ; use absolute coordinates
M83 ; extruder relative mode
M104 S220 ; set extruder temp
M140 S50 ; set bed temp
M190 S50 ; wait for bed temp
M109 S220 ; wait for extruder temp
G28 ; home all
G1 Z2 F240
G1 X2 Y10 F3000
G1 Z0.28 F240
G92 E0.0
G1 Y190 E15.0 F1500.0 ; intro line
G1 X2.3 F5000
G1 Y10 E30 F1200.0 ; intro line
G92 E0.0
G21 ; set units to millimeters
G90 ; use absolute coordinates
M83 ; use relative distances for extrusion
; Filament gcode
;BEFORE_LAYER_CHANGE
;0.2


G1 E-1.50000 F3600.00000
G1 Z0.200 F9000.000
;AFTER_LAYER_CHANGE
;0.2
G1 X39.511 Y41.634
G1 E1.50000 F2400.00000
G1 F1200.000
G1 X40.693 Y40.928 E0.04315
G1 X41.520 Y40.660 E0.02728
G1 X42.514 Y40.551 E0.03135
G1 X177.473 Y40.551 E4.23152
G1 X178.484 Y40.661 E0.03191
G1 X179.351 Y40.944 E0.02859
G1 X180.233 Y41.445 E0.03178
G1 X180.625 Y41.758 E0.01574
G1 X181.230 Y42.395 E0.02753
G1 X181.776 Y43.287 E0.03281
G1 X182.107 Y44.250 E0.03193
G1 X182.227 Y45.258 E0.03183
G1 X182.227 Y174.721 E4.05923
G1 X182.106 Y175.754 E0.03260
G1 X181.760 Y176.747 E0.03297
G1 X181.200 Y177.644 E0.03315
G1 X180.489 Y178.366 E0.03179
G1 X179.322 Y179.067 E0.04268
G1 X178.495 Y179.337 E0.02728
G1 X177.539 Y179.448 E0.03017
G1 X144.403 Y179.424 E1.03894
G1 X41.526 Y159.497 E3.28559
G1 X40.259 Y159.021 E0.04245
G1 X39.539 Y158.547 E0.02703
G1 X38.854 Y157.867 E0.03029
G1 X38.150 Y156.687 E0.04307
G1 X37.883 Y155.861 E0.02720
G1 X37.773 Y154.871 E0.03124
G1 X37.773 Y45.298 E3.43560
G1 X37.892 Y44.253 E0.03298
G1 X38.238 Y43.258 E0.03300
G1 X38.798 Y42.359 E0.03322
G1 X39.469 Y41.676 E0.03003
G1 E-1.05000 F3600.00000
G1 F7200.000
G1 X40.237 Y41.206 E-0.42750
G1 E-0.02250 F3600.00000
G1 X143.817 Y83.095 F9000.000
G1 E1.50000 F2400.00000
G1 F1200.000
G1 X158.743 Y83.095 E0.46799
G1 X158.743 Y98.021 E0.46799
G1 X143.817 Y98.021 E0.46799
G1 X143.817 Y83.155 E0.46611
G1 X143.713 Y82.709 F9000.000
G1 E-1.05000 F3600.00000
G1 F7200.000
G1 X144.717 Y83.151 E-0.42750
G1 E-0.02250 F3600.00000
G1 X159.397 Y83.716 F9000.000
G1 E1.50000 F2400.00000
G1 F1200.000
G1 X162.868 Y83.716 E0.10883
G1 X162.868 Y83.095 E0.01947
G1 X177.792 Y83.095 E0.46793
G1 X177.792 Y85.471 E0.07450
G1 X179.068 Y85.471 E0.04001
G1 X179.068 Y91.141 E0.17778
G1 X177.792 Y91.141 E0.04001
G1 X177.792 Y109.109 E0.56337
G1 X179.054 Y109.109 E0.03957
G1 X179.054 Y114.780 E0.17781
G1 X177.792 Y114.780 E0.03957
G1 X177.792 Y117.071 E0.07183
G1 X162.868 Y117.071 E0.46793
G1 X162.868 Y116.391 E0.02132
G1 X159.648 Y116.391 E0.10096
G1 X159.648 Y107.466 E0.27984
G1 X162.868 Y107.466 E0.10096
G1 X162.868 Y92.890 E0.45702
G1 X159.397 Y92.890 E0.10883
G1 X159.397 Y83.776 E0.28576
G1 X159.349 Y83.319 F9000.000
G1 E-1.05000 F3600.00000
G1 F7200.000
G1 X160.297 Y83.760 E-0.42750
G1 E-0.02250 F3600.00000
G1 X178.546 Y70.200 F9000.000
G1 E1.50000 F2400.00000
G1 F1200.000
G1 X178.546 Y53.740 E0.51608
G1 X178.886 Y53.740 E0.01065
G1 X178.886 Y70.200 E0.51608
G1 X178.606 Y70.200 E0.00877
G1 X178.169 Y70.577 F9000.000
G1 F1200.000
G1 X178.169 Y53.363 E0.53973
G1 X179.263 Y53.363 E0.03430
G1 X179.263 Y70.577 E0.53973
G1 X178.229 Y70.577 E0.03242
G1 E-1.05000 F3600.00000
G1 F7200.000
G1 X178.226 Y69.677 E-0.42750
G1 E-0.02250 F3600.00000
G1 X162.868 Y44.940 F9000.000
G1 E1.50000 F2400.00000
G1 F1200.000
G1 X177.792 Y44.940 E0.46793
G1 X177.792 Y47.316 E0.07450
G1 X179.068 Y47.316 E0.04001
G1 X179.068 Y52.986 E0.17778
G1 X177.792 Y52.986 E0.04001
G1 X177.792 Y70.954 E0.56337
G1 X179.054 Y70.954 E0.03957
G1 X179.054 Y76.625 E0.17781
G1 X177.792 Y76.625 E0.03957
G1 X177.792 Y78.915 E0.07180
G1 X162.868 Y78.915 E0.46793
G1 X162.868 Y78.265 E0.02038
G1 X159.397 Y78.265 E0.10883
G1 X159.397 Y69.090 E0.28768
G1 X162.868 Y69.090 E0.10883
G1 X162.868 Y54.640 E0.45307
G1 X159.397 Y54.640 E0.10883
G1 X159.397 Y45.465 E0.28768
G1 X162.868 Y45.465 E0.10883
G1 X162.868 Y45.000 E0.01458
G1 X163.050 Y44.584 F9000.000
G1 E-1.05000 F3600.00000
G1 F7200.000
G1 X163.768 Y44.996 E-0.42750
G1 E-0.02250 F3600.00000
G1 X139.693 Y64.045 F9000.000
G1 E1.50000 F2400.00000
G1 F1200.000
G1 X139.693 Y78.971 E0.46799
G1 X124.768 Y78.971 E0.46796
G1 X124.768 Y64.045 E0.46799
G1 X139.633 Y64.045 E0.46608
G1 X140.079 Y63.941 F9000.000
G1 X140.032 Y63.860
G1 F1200.000
G1 X140.102 Y63.423 E0.01387
G1 X140.303 Y63.029 E0.01387
G1 X140.616 Y62.715 E0.01391
G1 X141.010 Y62.515 E0.01387
G1 X141.435 Y62.448 E0.01346
G1 X141.885 Y62.514 E0.01427
G1 X142.280 Y62.715 E0.01390
G1 X142.593 Y63.029 E0.01391
G1 X142.794 Y63.423 E0.01388
G1 X142.863 Y63.860 E0.01385
G1 X142.794 Y64.298 E0.01389
G1 X142.593 Y64.692 E0.01389
G1 X142.280 Y65.005 E0.01388
G1 X141.886 Y65.206 E0.01388
G1 X141.448 Y65.276 E0.01390
G1 X141.010 Y65.206 E0.01390
G1 X140.616 Y65.005 E0.01388
G1 X140.303 Y64.692 E0.01388
G1 X140.102 Y64.298 E0.01388
G1 X140.042 Y63.919 E0.01202
G1 X139.686 Y63.660 F9000.000
G1 E-1.05000 F3600.00000
G1 F7200.000
G1 X140.102 Y63.423 E-0.23735
G1 X140.284 Y63.067 E-0.19015
G1 E-0.02250 F3600.00000
G1 X143.817 Y64.045 F9000.000
G1 E1.50000 F2400.00000
G1 F1200.000
G1 X158.743 Y64.045 E0.46799
G1 X158.743 Y78.971 E0.46799
G1 X143.817 Y78.971 E0.46799
G1 X143.817 Y64.105 E0.46611
G1 X143.713 Y63.659 F9000.000
G1 E-1.05000 F3600.00000
G1 F7200.000
G1 X144.717 Y64.101 E-0.42750
G1 E-0.02250 F3600.00000
G1 X143.817 Y59.921 F9000.000
G1 E1.50000 F2400.00000
G1 F1200.000
G1 X143.817 Y44.995 E0.46799
G1 X158.743 Y44.995 E0.46799
G1 X158.743 Y59.921 E0.46799
G1 X143.877 Y59.921 E0.46611
G1 X143.431 Y60.025 F9000.000
G1 E-1.05000 F3600.00000
G1 F7200.000
G1 X143.873 Y59.021 E-0.42750
G1 E-0.02250 F3600.00000
G1 X130.981 Y44.226 F9000.000
G1 E1.50000 F2400.00000
G1 F1200.000
G1 X114.521 Y44.226 E0.51608
G1 X114.521 Y43.893 E0.01043
G1 X130.981 Y43.893 E0.51608
G1 X130.981 Y44.166 E0.00854
G1 X131.358 Y44.603 F9000.000
G1 F1200.000
G1 X114.144 Y44.603 E0.53973
G1 X114.144 Y43.516 E0.03408
G1 X131.358 Y43.516 E0.53973
G1 X131.358 Y44.543 E0.03219
G1 E-1.05000 F3600.00000
G1 F7200.000
G1 X130.458 Y44.546 E-0.42750
G1 E-0.02250 F3600.00000
G1 X108.096 Y43.640 F9000.000
G1 E1.50000 F2400.00000
G1 F1200.000
G1 X113.767 Y43.640 E0.17781
G1 X113.767 Y44.980 E0.04201
G1 X131.735 Y44.980 E0.56337
G1 X131.735 Y43.655 E0.04154
G1 X137.406 Y43.655 E0.17781
G1 X137.406 Y44.980 E0.04154
G1 X139.781 Y44.980 E0.07447
G1 X139.781 Y59.904 E0.46793
G1 X139.322 Y59.904 E0.01439
G1 X139.322 Y63.266 E0.10541
G1 X130.148 Y63.266 E0.28764
G1 X130.148 Y59.904 E0.10541
G1 X115.572 Y59.904 E0.45702
G1 X115.572 Y63.141 E0.10149
G1 X106.398 Y63.141 E0.28764
G1 X106.398 Y59.904 E0.10149
G1 X105.806 Y59.904 E0.01856
G1 X105.806 Y44.980 E0.46793
G1 X108.096 Y44.980 E0.07180
G1 X108.096 Y43.700 E0.04013
G1 X108.232 Y43.264 F9000.000
G1 E-1.05000 F3600.00000
G1 F7200.000
G1 X108.996 Y43.690 E-0.42750
G1 E-0.02250 F3600.00000
G1 X143.440 Y101.768 F9000.000
G1 E1.50000 F2400.00000
G1 F1200.000
G1 X159.120 Y101.768 E0.49164
G1 X159.120 Y117.448 E0.49164
G1 X143.440 Y117.448 E0.49164
G1 X143.440 Y101.828 E0.48976
G1 X143.817 Y102.145 F9000.000
G1 F1200.000
G1 X158.743 Y102.145 E0.46799
G1 X158.743 Y117.071 E0.46799
G1 X143.817 Y117.071 E0.46799
G1 X143.817 Y102.205 E0.46611
G1 X143.713 Y101.759 F9000.000
G1 E-1.05000 F3600.00000
G1 F7200.000
G1 X144.717 Y102.201 E-0.42750
G1 E-0.02250 F3600.00000
G1 X121.020 Y79.348 F9000.000
G1 E1.50000 F2400.00000
G1 F1200.000
G1 X105.341 Y79.348 E0.49161
G1 X105.341 Y63.668 E0.49164
G1 X121.020 Y63.668 E0.49161
G1 X121.020 Y79.288 E0.48976
G1 X120.643 Y78.971 F9000.000
G1 F1200.000
G1 X105.718 Y78.971 E0.46796
G1 X105.718 Y64.045 E0.46799
G1 X120.643 Y64.045 E0.46796
G1 X120.643 Y78.911 E0.46611
G1 X120.747 Y79.357 F9000.000
G1 E-1.05000 F3600.00000
G1 F7200.000
G1 X119.743 Y78.915 E-0.42750
G1 E-0.02250 F3600.00000
G1 X104.964 Y101.391 F9000.000
G1 E1.50000 F2400.00000
G1 F1200.000
G1 X121.397 Y101.391 E0.51526
G1 X121.397 Y117.825 E0.51529
G1 X104.964 Y117.825 E0.51526
G1 X104.964 Y101.451 E0.51341
G1 X105.341 Y101.768 F9000.000
G1 F1200.000
G1 X121.020 Y101.768 E0.49161
G1 X121.020 Y117.448 E0.49164
G1 X105.341 Y117.448 E0.49161
G1 X105.341 Y101.828 E0.48976
G1 X105.718 Y102.145 F9000.000
G1 F1200.000
G1 X120.643 Y102.145 E0.46796
G1 X120.643 Y117.071 E0.46799
G1 X105.718 Y117.071 E0.46796
G1 X105.718 Y102.205 E0.46611
G1 X105.614 Y101.759 F9000.000
G1 E-1.05000 F3600.00000
G1 F7200.000
G1 X106.618 Y102.201 E-0.42750
G1 E-0.02250 F3600.00000
G1 X104.964 Y120.441 F9000.000
G1 E1.50000 F2400.00000
G1 F1200.000
G1 X121.397 Y120.441 E0.51526
G1 X121.397 Y136.875 E0.51529
G1 X104.964 Y136.875 E0.51526
G1 X104.964 Y120.501 E0.51341
G1 X105.341 Y120.818 F9000.000
G1 F1200.000
G1 X121.020 Y120.818 E0.49161
G1 X121.020 Y136.498 E0.49164
G1 X105.341 Y136.498 E0.49161
G1 X105.341 Y120.878 E0.48976
G1 X105.718 Y121.195 F9000.000
G1 F1200.000
G1 X120.643 Y121.195 E0.46796
G1 X120.643 Y136.121 E0.46799
G1 X105.718 Y136.121 E0.46796
G1 X105.718 Y121.255 E0.46611
G1 X105.614 Y120.809 F9000.000
G1 E-1.05000 F3600.00000
G1 F7200.000
G1 X106.618 Y121.251 E-0.42750
G1 E-0.02250 F3600.00000
G1 X79.594 Y120.462 F9000.000
G1 E1.50000 F2400.00000
G1 F1200.000
G1 X96.027 Y120.462 E0.51526
G1 X96.027 Y136.895 E0.51526
G1 X79.594 Y136.895 E0.51526
G1 X79.594 Y120.522 E0.51337
G1 X79.971 Y120.839 F9000.000
G1 F1200.000
G1 X95.650 Y120.839 E0.49161
G1 X95.650 Y136.518 E0.49161
G1 X79.971 Y136.518 E0.49161
G1 X79.971 Y120.899 E0.48973
G1 X80.348 Y121.216 F9000.000
G1 F1200.000
G1 X95.273 Y121.216 E0.46796
G1 X95.273 Y136.141 E0.46796
G1 X80.348 Y136.141 E0.46796
G1 X80.348 Y121.276 E0.46608
G1 X80.244 Y120.830 F9000.000
G1 E-1.05000 F3600.00000
G1 F7200.000
G1 X81.248 Y121.272 E-0.42750
G1 E-0.02250 F3600.00000
G1 X79.543 Y101.461 F9000.000
G1 E1.50000 F2400.00000
G1 F1200.000
G1 X95.976 Y101.461 E0.51526
G1 X95.976 Y117.895 E0.51529
G1 X79.543 Y117.895 E0.51526
G1 X79.543 Y101.521 E0.51341
G1 X79.920 Y101.838 F9000.000
G1 F1200.000
G1 X95.599 Y101.838 E0.49161
G1 X95.599 Y117.518 E0.49164
G1 X79.920 Y117.518 E0.49161
G1 X79.920 Y101.898 E0.48976
G1 X80.297 Y102.215 F9000.000
G1 F1200.000
G1 X95.222 Y102.215 E0.46796
G1 X95.222 Y117.141 E0.46799
G1 X80.297 Y117.141 E0.46796
G1 X80.297 Y102.275 E0.46611
G1 X80.193 Y101.829 F9000.000
G1 E-1.05000 F3600.00000
G1 F7200.000
G1 X81.197 Y102.271 E-0.42750
G1 E-0.02250 F3600.00000
G1 X60.493 Y101.461 F9000.000
G1 E1.50000 F2400.00000
G1 F1200.000
G1 X76.926 Y101.461 E0.51526
G1 X76.926 Y117.895 E0.51529
G1 X60.493 Y117.895 E0.51526
G1 X60.493 Y101.521 E0.51341
G1 X60.870 Y101.838 F9000.000
G1 F1200.000
G1 X76.549 Y101.838 E0.49161
G1 X76.549 Y117.518 E0.49164
G1 X60.870 Y117.518 E0.49161
G1 X60.870 Y101.898 E0.48976
G1 X61.247 Y102.215 F9000.000
G1 F1200.000
G1 X76.172 Y102.215 E0.46796
G1 X76.172 Y117.141 E0.46799
G1 X61.247 Y117.141 E0.46796
G1 X61.247 Y102.275 E0.46611
G1 X61.143 Y101.829 F9000.000
G1 E-1.05000 F3600.00000
G1 F7200.000
G1 X62.147 Y102.271 E-0.42750
G1 E-0.02250 F3600.00000
G1 X41.493 Y101.461 F9000.000
G1 E1.50000 F2400.00000
G1 F1200.000
G1 X57.926 Y101.461 E0.51526
G1 X57.926 Y117.895 E0.51529
G1 X41.493 Y117.895 E0.51526
G1 X41.493 Y101.521 E0.51341
G1 X41.870 Y101.838 F9000.000
G1 F1200.000
G1 X57.549 Y101.838 E0.49161
G1 X57.549 Y117.518 E0.49164
G1 X41.870 Y117.518 E0.49161
G1 X41.870 Y101.898 E0.48976
G1 X42.247 Y102.215 F9000.000
G1 F1200.000
G1 X57.172 Y102.215 E0.46796
G1 X57.172 Y117.141 E0.46799
G1 X42.247 Y117.141 E0.46796
G1 X42.247 Y102.275 E0.46611
G1 X42.143 Y101.829 F9000.000
G1 E-1.05000 F3600.00000
G1 F7200.000
G1 X43.147 Y102.271 E-0.42750
G1 E-0.02250 F3600.00000
G1 X41.493 Y120.462 F9000.000
G1 E1.50000 F2400.00000
G1 F1200.000
G1 X57.926 Y120.462 E0.51526
G1 X57.926 Y136.895 E0.51526
G1 X41.493 Y136.895 E0.51526
G1 X41.493 Y120.522 E0.51337
G1 X41.870 Y120.839 F9000.000
G1 F1200.000
G1 X57.549 Y120.839 E0.49161
G1 X57.549 Y136.518 E0.49161
G1 X41.870 Y136.518 E0.49161
G1 X41.870 Y120.899 E0.48973
G1 X42.247 Y121.216 F9000.000
G1 F1200.000
G1 X57.172 Y121.216 E0.46796
G1 X57.172 Y136.141 E0.46796
G1 X42.247 Y136.141 E0.46796
G1 X42.247 Y121.276 E0.46608
G1 X42.143 Y120.830 F9000.000
G1 E-1.05000 F3600.00000
G1 F7200.000
G1 X43.147 Y121.272 E-0.42750
G1 E-0.02250 F3600.00000
G1 X60.494 Y120.462 F9000.000
G1 E1.50000 F2400.00000
G1 F1200.000
G1 X76.927 Y120.462 E0.51526
G1 X76.927 Y136.895 E0.51526
G1 X60.494 Y136.895 E0.51526
G1 X60.494 Y120.522 E0.51337
G1 X60.871 Y120.839 F9000.000
G1 F1200.000
G1 X76.550 Y120.839 E0.49161
G1 X76.550 Y136.518 E0.49161
G1 X60.871 Y136.518 E0.49161
G1 X60.871 Y120.899 E0.48973
G1 X61.248 Y121.216 F9000.000
G1 F1200.000
G1 X76.173 Y121.216 E0.46796
G1 X76.173 Y136.141 E0.46796
G1 X61.248 Y136.141 E0.46796
G1 X61.248 Y121.276 E0.46608
G1 X61.144 Y120.830 F9000.000
G1 E-1.05000 F3600.00000
G1 F7200.000
G1 X62.148 Y121.272 E-0.42750
G1 E-0.02250 F3600.00000
G1 X79.554 Y60.654 F9000.000
G1 E1.50000 F2400.00000
G1 F1200.000
G1 X79.554 Y44.221 E0.51526
G1 X95.987 Y44.221 E0.51526
G1 X95.987 Y60.654 E0.51526
G1 X79.614 Y60.654 E0.51337
G1 X79.931 Y60.277 F9000.000
G1 F1200.000
G1 X79.931 Y44.598 E0.49161
G1 X95.610 Y44.598 E0.49161
G1 X95.610 Y60.277 E0.49161
G1 X79.991 Y60.277 E0.48973
G1 X80.308 Y59.900 F9000.000
G1 F1200.000
G1 X80.308 Y44.975 E0.46796
G1 X95.233 Y44.975 E0.46796
G1 X95.233 Y59.900 E0.46796
G1 X80.368 Y59.900 E0.46608
G1 X79.922 Y60.004 F9000.000
G1 E-1.05000 F3600.00000
G1 F7200.000
G1 X80.364 Y59.000 E-0.42750
G1 E-0.02250 F3600.00000
G1 X76.927 Y63.311 F9000.000
G1 E1.50000 F2400.00000
G1 F1200.000
G1 X76.927 Y79.744 E0.51526
G1 X60.494 Y79.744 E0.51526
G1 X60.494 Y63.311 E0.51526
G1 X76.867 Y63.311 E0.51337
G1 X76.550 Y63.688 F9000.000
G1 F1200.000
G1 X76.550 Y79.367 E0.49161
G1 X60.871 Y79.367 E0.49161
G1 X60.871 Y63.688 E0.49161
G1 X76.490 Y63.688 E0.48973
G1 X76.173 Y64.065 F9000.000
G1 F1200.000
G1 X76.173 Y78.990 E0.46796
G1 X61.248 Y78.990 E0.46796
G1 X61.248 Y64.065 E0.46796
G1 X76.113 Y64.065 E0.46608
G1 X76.559 Y63.961 F9000.000
G1 E-1.05000 F3600.00000
G1 F7200.000
G1 X76.117 Y64.965 E-0.42750
G1 E-0.02250 F3600.00000
G1 X91.585 Y81.154 F9000.000
G1 E1.50000 F2400.00000
G1 F1200.000
G1 X92.206 Y80.845 E0.02174
G1 X92.863 Y80.741 E0.02085
G1 X93.537 Y80.848 E0.02140
G1 X94.144 Y81.158 E0.02137
G1 X94.625 Y81.639 E0.02135
G1 X94.935 Y82.246 E0.02137
G1 X95.042 Y82.920 E0.02141
G1 X94.935 Y83.593 E0.02137
G1 X94.625 Y84.200 E0.02136
G1 X94.144 Y84.681 E0.02135
G1 X93.537 Y84.991 E0.02137
G1 X92.863 Y85.098 E0.02140
G1 X92.189 Y84.991 E0.02140
G1 X91.582 Y84.681 E0.02137
G1 X91.101 Y84.200 E0.02135
G1 X90.790 Y83.592 E0.02140
G1 X90.685 Y82.920 E0.02132
G1 X90.790 Y82.247 E0.02136
G1 X91.101 Y81.639 E0.02141
G1 X91.543 Y81.196 E0.01962
G1 X91.809 Y81.464 F9000.000
G1 F1200.000
G1 X92.322 Y81.208 E0.01800
G1 X92.863 Y81.123 E0.01716
G1 X93.419 Y81.211 E0.01765
G1 X93.920 Y81.466 E0.01762
G1 X94.317 Y81.863 E0.01761
G1 X94.572 Y82.364 E0.01762
G1 X94.660 Y82.920 E0.01765
G1 X94.572 Y83.475 E0.01762
G1 X94.317 Y83.976 E0.01762
G1 X93.920 Y84.373 E0.01761
G1 X93.419 Y84.628 E0.01762
G1 X92.863 Y84.716 E0.01765
G1 X92.307 Y84.628 E0.01765
G1 X91.806 Y84.373 E0.01762
G1 X91.409 Y83.976 E0.01761
G1 X91.153 Y83.474 E0.01764
G1 X91.067 Y82.920 E0.01759
G1 X91.153 Y82.365 E0.01762
G1 X91.409 Y81.863 E0.01765
G1 X91.766 Y81.507 E0.01583
G1 X92.032 Y81.774 F9000.000
G1 F1200.000
G1 X92.439 Y81.572 E0.01425
G1 X92.863 Y81.504 E0.01347
G1 X93.301 Y81.574 E0.01390
G1 X93.695 Y81.775 E0.01388
G1 X94.008 Y82.088 E0.01388
